assets/Chipmunk/Flat/chipmunk_flat.svg

<svg width="32" height="32" viewBox="0 0 32 32" fill="none" xmlns="http://www.w3.org/2000/svg">
<path d="M28.07 9.04L26.82 8.42C26.62 8.31 26.69 8 26.92 8H27.5C28.88 8 30 6.88 30 5.5C30 4.12 28.88 3 27.5 3H25.47C23 3 21 5 21 7.47C21 9.04 21.82 10.49 23.17 11.3L25.05 12.43C25.64 12.78 26 13.42 26 14.1V26H21.52V30H26C28.21 30 30 28.21 30 26V12.16C30 10.83 29.25 9.63 28.07 9.04Z" fill="#A56953"/>
<path d="M3.85999 16.99V18.98C3.85999 19.67 4.24999 20.3 4.86999 20.6L5.55999 20.93C5.74999 21.02 5.96999 21.02 6.15999 20.93L6.84999 20.6C7.46999 20.3 7.85999 19.67 7.85999 18.98V16.99H3.85999Z" fill="#6D4534"/>
<path d="M14.31 9.62C14.73 10.47 15.6 11 16.55 11C21.0657 11 24.7492 14.5436 24.9877 19H25V19.4418L25 19.46V26.95C25 27.79 24.66 28.5525 24.1087 29.105C23.5575 29.6575 22.795 30 21.95 30H7.43998C7.18998 30 6.99998 29.76 7.05998 29.51C7.27998 28.64 8.05998 28 8.99998 28H10.8339C9.98084 26.926 9.5 25.5026 9.5 23.94V21.04L7.5 21C6.68 21 6.02 20.35 6 19.53C5.98 18.69 6.69 18 7.54 18H9L10 15L2.31 11L4.66 7.23C4.665 7.225 4.67 7.2175 4.67499 7.21C4.67999 7.20251 4.685 7.195 4.69 7.19L4.74 7.1C5.57 5.84 6.99 5 8.61 5H10V3.33C10 3.14 10.15 3 10.33 3C11.82 3 13.02 4.22 13.01 5.71C13 6.57 13.21 7.42 13.6 8.19L14.31 9.62Z" fill="#F3AD61"/>
<path d="M7.6 16.49C8.02 16.49 8.35 16.83 8.35 17.24C8.35 17.65 8.00999 17.99 7.6 17.99H4.11999C3.71 17.99 3.37 17.65 3.37 17.24C3.37 16.83 3.71 16.49 4.11999 16.49H7.6Z" fill="#F3AD61"/>
<path d="M5.65 9.15C5.89 8.46 6.54 8 7.28 8C8.23 8 9 8.77 9 9.72V10.75C9 10.89 9.11 11 9.25 11C10.22 11 11 11.78 11 12.75V16.38L9.65 17.74C9.47 17.91 9.24 17.98 9 18V15H5.12C3.39 15 2 13.61 2 11.88C2 11.56 2.11 11.25 2.31 11H3.72C4.49 11 5.17 10.52 5.42 9.8C5.45412 9.70616 5.48643 9.61232 5.51846 9.51926C5.56153 9.39415 5.60413 9.27042 5.65 9.15Z" fill="#FFDEA7"/>
<path d="M13.71 19.74C12.86 20.57 11.72 21.04 10.53 21.04H9V23.94C9 25.5017 9.38067 26.9254 10.1283 28H14V26.72C14 26.7142 14 26.7084 14 26.7026V19.4L13.71 19.74Z" fill="#FFDEA7"/>
<path d="M22 19.45V25.25C22 25.66 22.34 26 22.75 26C23.16 26 23.5 25.66 23.5 25.25V19.45C23.5 16.49 21.64 13.95 19.02 12.95C18.53 12.77 18 13.13 18 13.66C18 13.97 18.19 14.25 18.48 14.36C20.54 15.14 22 17.13 22 19.45Z" fill="#A56953"/>
<path d="M7.5 10.75C7.5 11.1642 7.16421 11.5 6.75 11.5C6.33579 11.5 6 11.1642 6 10.75C6 10.3358 6.33579 10 6.75 10C7.16421 10 7.5 10.3358 7.5 10.75Z" fill="#1C1C1C"/>
<path d="M2.31 11C2.84 11 3.26 11.43 3.26 11.96C3.26 12.49 2.83 12.92 2.3 12.92C2.26 12.92 2.22 12.92 2.17 12.91C2.06 12.59 2 12.24 2 11.88C2 11.56 2.11 11.25 2.31 11Z" fill="#1C1C1C"/>
</svg>

<svg xmlns="http://www.w3.org/2000/svg" width="32" height="32" fill="none"><path fill="#A56953" d="m28.07 9.04-1.25-.62c-.2-.11-.13-.42.1-.42h.58a2.5 2.5 0 0 0 0-5h-2.03a4.468 4.468 0 0 0-2.3 8.3l1.88 1.13c.59.35.95.99.95 1.67V26h-4.48v4H26c2.21 0 4-1.79 4-4V12.16c0-1.33-.75-2.53-1.93-3.12Z"/><path fill="#6D4534" d="M3.86 16.99v1.99c0 .69.39 1.32 1.01 1.62l.69.33a.7.7 0 0 0 .6 0l.69-.33c.62-.3 1.01-.93 1.01-1.62v-1.99h-4Z"/><path fill="#F3AD61" d="M14.31 9.62c.42.85 1.29 1.38 2.24 1.38 4.516 0 8.2 3.544 8.438 8H25v7.95c0 .84-.34 1.602-.891 2.155A3.038 3.038 0 0 1 21.95 30H7.44c-.25 0-.44-.24-.38-.49.22-.87 1-1.51 1.94-1.51h1.834C9.98 26.926 9.5 25.503 9.5 23.94v-2.9l-2-.04c-.82 0-1.48-.65-1.5-1.47-.02-.84.69-1.53 1.54-1.53H9l1-3-7.69-4 2.35-3.77a.138.138 0 0 0 .015-.02l.015-.02.05-.09C5.57 5.84 6.99 5 8.61 5H10V3.33c0-.19.15-.33.33-.33 1.49 0 2.69 1.22 2.68 2.71-.01.86.2 1.71.59 2.48l.71 1.43Z"/><path fill="#F3AD61" d="M7.6 16.49a.749.749 0 1 1 0 1.5H4.12c-.41 0-.75-.34-.75-.75s.34-.75.75-.75H7.6Z"/><path fill="#FFDEA7" d="M5.65 9.15C5.89 8.46 6.54 8 7.28 8 8.23 8 9 8.77 9 9.72v1.03c0 .14.11.25.25.25.97 0 1.75.78 1.75 1.75v3.63l-1.35 1.36c-.18.17-.41.24-.65.26v-3H5.12C3.39 15 2 13.61 2 11.88c0-.32.11-.63.31-.88h1.41c.77 0 1.45-.48 1.7-1.2.034-.094.066-.188.098-.28.044-.126.086-.25.132-.37ZM13.71 19.74c-.85.83-1.99 1.3-3.18 1.3H9v2.9c0 1.562.38 2.985 1.128 4.06H14v-8.6l-.29.34Z"/><path fill="#A56953" d="M22 19.45v5.8c0 .41.34.75.75.75s.75-.34.75-.75v-5.8c0-2.96-1.86-5.5-4.48-6.5a.759.759 0 0 0-1.02.71c0 .31.19.59.48.7 2.06.78 3.52 2.77 3.52 5.09Z"/><path fill="#1C1C1C" d="M7.5 10.75a.75.75 0 1 1-1.5 0 .75.75 0 0 1 1.5 0ZM2.31 11c.53 0 .95.43.95.96s-.43.96-.96.96c-.04 0-.08 0-.13-.01-.11-.32-.17-.67-.17-1.03 0-.32.11-.63.31-.88Z"/></svg>
